X:195
T:Dalkeith Maiden Bridge
B:Aird's Airs and Melodies vol 3
M:C|
Z:Richard Robinson 
%%TUNEURL: http://www.leeds.ac.uk/music/Info/RRTuneBk/gettune/000001b7.html
%%ID:000001b7
K:E min
"Slow" DE|\
G>FGA B2AG| A>GAB d3e| dG A>cBA| {A}G2E2 E2::\
ef|\
g>fga "tr"g2eg| a>gab a2ge| g3a bage| g2d2 d2ge| dG A2g>e| dB (c/B/A/G/) E2g>e| dG A>cBA| {A}G2E2 E2:|
